X: 28296
T: Mrs. Smyth Of Methven's
R: reel
M: 4/4
K: Amajor
E2CE A,CEC|B,BBc BAFB|A2EC EFAF|ECDB,A,2A,2|
E2CE A,CEC|B,BBc BAFB|A2EC Ac/d/ ec|dfecA2Ad|
c2ec Acdf|ecAc BAFd|c2ec Acdf|ecBcA2Ad|
c2ec Acdf|ecAc BAFB|A2EC EFAF|ECDB,A,2A,2||

